!!!COM: Corelli, Arcangelo
!!!OTL: 
!!!ONM: Opus 5, No. 9
!!!OMV: 1
!!!CDT: 1653/2/17/-1713/1/8/
!!!OCY: Italia
**kern	**kern
*clefC	*clefG
*k[f#c#]	*k[f#c#]
*D:	*D:
*M4/4	*M4/4
2..r	2..r
8r	8ee
=1	=1
4.r	8cc#
.	8a
.	8cc#
8A	16dd
.	16cc#
8G#	8b
8B	4e
8e	.
8G#	8b
=2	=2
4F#	8a
.	16b
.	16cc#
8r	8.b
8d#	.
.	16a
8E	8g#
8F#	4e
8G#	.
8E	8ee
=3	=3
4F#	8ee
.	8a
8r	8.dd
8G#	.
.	16dd
8A	8dd
8B	4cc#
8c#	.
8C#	16aa
.	16gg#
=4	=4
8D	16ff#
.	16ee
8BB	16dd
.	16cc#
8E	4b
8EE	.
4AA	8a
.	8cc#
8r	[4ff#
8A	.
=5	=5
8G#	8ff#]
8B	16ee
.	16dd#
8e	4.ee
8G#	.
4F#	.
.	16ff#
.	16gg#
8r	8aa
8d#	16bb
.	16aa
=6	=6
8E	8gg#
8G#	4ee
8c#	.
8E	8cc#
4D#	8cc#
.	8b
8r	8b
8B	8b
=7	=7
8C#	8ee
8E	8a
8A	8r
8C#	8a
4BB	8a
.	8g#
8r	8g#
8G#	8g#
=8	=8
8AA	8cc#
8C#	8f#
8F#	8r
8AA	8f#
4GG#	8b
.	8d#
8r	8e
8AA	8cc#
=9	=9
8BB	4g#
8AA	.
8BB	4f#
8BB	.
4.EE	4.e
8r	8b
=10	=10
4.r	8g#
.	8e
.	8b
8E	8ee
8A	8cc#
8B	8a
8c#	8r
8A	8f#
=11	=11
4E#	8g#
.	8c#
8r	8g#
8C#	8cc#
8F#	8a
8G#	8f#
8A	8r
8F#	8cc#
=12	=12
4.BB#	8dd#
.	8g#
.	8dd#
8G#	8gg#
8c#	8ee
8d#	8cc#
8e	8r
8c#	8aa
=13	=13
4B#	8aa
.	8gg#
4B	8gg#
.	8gg#
4A#	8ccc#
.	4ff#
8A	.
16G#	16gg#
16F#	16aa
=14	=14
8G#	8b#
8C#	16cc#
.	16dd#
8G#	8.dd#
8GG#	.
.	16cc#
8C#	4.cc#
16c#	.
16d#	.
8e	.
8c#	16cc#
.	16dd#
=15	=15
4A#	8ee
.	8ee
8r	8ee
8F#	16ff#
.	16cc#
8BB	8dd
16B	8B
16c#	.
8d	8r
8B	16b
.	16cc#
=16	=16
4G#	8dd
.	8dd
8r	8dd
8E	16ee
.	16b
8A	8cc#
8c#	8A
8f#	8r
8A	8ff#
=17	=17
4G#	8ff#
.	8ee
8r	8ee
8e	8ee
8F#	8aa
8A	8dd
8d	8r
8F#	8dd
=18	=18
4E	8dd
.	8cc#
8r	8cc#
8c#	8cc#
8D	8ff#
8F#	8b
8B	8r
8D	8b
=19	=19
4C#	8ee
.	8g#
8r	8a
8D	8ff#
8E	4cc#
8D	.
8E	4b
8EE	.
=20	=20
8A	4.a
8c#	.
8f#	.
8A	8ff#
4G#	8ff#
.	8ee
8r	8ee
8e	8ee
=21	=21
8F#	8aa
8A	8dd
8d	8r
8F#	8dd
4E	8dd
.	8cc#
8r	8cc#
8c#	8cc#
=22	=22
8D	8ff#
8F#	8b
8B	8r
8D	8b
4C#	8ee
.	8g#
8r	8a
8D	8ff#
=23	=23
8E	4cc#
8D	.
8E	4b
8EE	.
4.AA	4.a
8r	8r
==	==
*-	*-
!!!RWG: This file only contains pitch and duration data.
!!!RWG: Transposing instruments are not transposed.
!!!RWG: Durations of rests and tied notes may be interpreted.
!!!RWG: Key is interpreted using the Humdrum key tool.
!!!SCA: 
!!!YOR: 
!!!AGN: violin
!!!AFT: stage1
!!!ENC: F. Bennion
!!!END: 1997/04/15
!!!AST: baroque
!!!YEC: Copyright 1994, Center for Computer Assisted Research in the Humanities
!!!YEM: Rights to all derivative electronic formats reserved.
!!!YEM: Refer to licensing agreement for further details.
!!!YEN: United States of America
!!!EED: W.B. Hewlett
!!!KEY: 946246874
!!!EMD: Converted from MuseData to Humdrum Aug 9, 1999, by Bret Aarden using muse2kern.
!!!VTS: 797675095
